Numix/16/emotes/face-sleeping.svg

<?xml version="1.0" encoding="UTF-8" standalone="no"?>
<svg
   xmlns:dc="http://purl.org/dc/elements/1.1/"
   xmlns:cc="http://creativecommons.org/ns#"
   xmlns:rdf="http://www.w3.org/1999/02/22-rdf-syntax-ns#"
   xmlns:svg="http://www.w3.org/2000/svg"
   xmlns="http://www.w3.org/2000/svg"
   xmlns:sodipodi="http://sodipodi.sourceforge.net/DTD/sodipodi-0.dtd"
   xmlns:inkscape="http://www.inkscape.org/namespaces/inkscape"
   width="16px"
   height="16px"
   viewBox="0 0 12 12"
   version="1.1"
   id="svg2977"
   inkscape:version="0.91 r"
   sodipodi:docname="face-sleeping.svg">
  <metadata
     id="metadata2994">
    <rdf:RDF>
      <cc:Work
         rdf:about="">
        <dc:format>image/svg+xml</dc:format>
        <dc:type
           rdf:resource="http://purl.org/dc/dcmitype/StillImage" />
      </cc:Work>
    </rdf:RDF>
  </metadata>
  <defs
     id="defs2992" />
  <sodipodi:namedview
     pagecolor="#ffffff"
     bordercolor="#666666"
     borderopacity="1"
     objecttolerance="10"
     gridtolerance="10"
     guidetolerance="10"
     inkscape:pageopacity="0"
     inkscape:pageshadow="2"
     inkscape:window-width="640"
     inkscape:window-height="480"
     id="namedview2990" />
  <g
     id="surface1">
    <path
       style=" stroke:none;fill-rule:nonzero;fill:rgb(100%,85.098039%,36.078431%);fill-opacity:1;"
       d="M 11.25 6 C 11.25 8.484375 8.898438 10.5 6 10.5 C 3.101562 10.5 0.75 8.484375 0.75 6 C 0.75 3.515625 3.097656 1.5 6 1.5 C 8.902344 1.5 11.25 3.515625 11.25 6 Z M 11.25 6 "
       id="path2980" />
    <path
       style=" stroke:none;fill-rule:nonzero;fill:rgb(38.823529%,38.823529%,38.823529%);fill-opacity:1;"
       d="M 4.078125 7.875 C 3.636719 7.875 3.28125 7.519531 3.28125 7.078125 C 3.28125 7 3.292969 6.917969 3.320312 6.839844 C 3.421875 7.171875 3.730469 7.398438 4.078125 7.398438 C 4.425781 7.398438 4.734375 7.171875 4.835938 6.839844 C 4.863281 6.917969 4.875 6.996094 4.875 7.078125 C 4.875 7.519531 4.519531 7.875 4.078125 7.875 Z M 4.078125 7.875 "
       id="path2982" />
    <path
       style=" stroke:none;fill-rule:nonzero;fill:rgb(38.823529%,38.823529%,38.823529%);fill-opacity:1;"
       d="M 7.921875 7.875 C 7.480469 7.875 7.125 7.519531 7.125 7.078125 C 7.125 7 7.136719 6.917969 7.164062 6.839844 C 7.265625 7.171875 7.574219 7.398438 7.921875 7.398438 C 8.269531 7.398438 8.578125 7.171875 8.679688 6.839844 C 8.707031 6.917969 8.71875 6.996094 8.71875 7.078125 C 8.71875 7.519531 8.363281 7.875 7.921875 7.875 Z M 7.921875 7.875 "
       id="path2984" />
    <path
       style=" stroke:none;fill-rule:nonzero;fill:rgb(20.784314%,20.784314%,20.784314%);fill-opacity:1;"
       d="M 7.910156 4.117188 C 7.828125 4.261719 7.746094 4.394531 7.667969 4.515625 C 7.59375 4.632812 7.527344 4.746094 7.464844 4.859375 C 7.398438 4.960938 7.335938 5.066406 7.277344 5.167969 C 7.21875 5.265625 7.164062 5.363281 7.113281 5.460938 L 7.941406 5.460938 L 7.941406 5.785156 L 6.675781 5.785156 L 6.675781 5.558594 C 6.71875 5.476562 6.765625 5.382812 6.820312 5.285156 C 6.871094 5.183594 6.929688 5.078125 6.996094 4.964844 C 7.058594 4.855469 7.128906 4.734375 7.199219 4.605469 C 7.277344 4.46875 7.359375 4.328125 7.453125 4.175781 L 6.714844 4.175781 L 6.714844 3.855469 L 7.910156 3.855469 Z M 7.910156 4.117188 "
       id="path2986" />
    <path
       style=" stroke:none;fill-rule:nonzero;fill:rgb(20.784314%,20.784314%,20.784314%);fill-opacity:1;"
       d="M 10.019531 3.574219 C 9.90625 3.746094 9.808594 3.898438 9.71875 4.042969 C 9.632812 4.183594 9.550781 4.324219 9.472656 4.460938 C 9.394531 4.59375 9.320312 4.71875 9.25 4.839844 C 9.183594 4.957031 9.117188 5.074219 9.054688 5.191406 L 10.050781 5.191406 L 10.050781 5.570312 L 8.527344 5.570312 L 8.527344 5.308594 C 8.578125 5.199219 8.636719 5.085938 8.695312 4.96875 C 8.757812 4.851562 8.832031 4.722656 8.910156 4.585938 C 8.988281 4.449219 9.070312 4.304688 9.160156 4.148438 C 9.253906 3.992188 9.351562 3.820312 9.464844 3.632812 L 8.578125 3.632812 L 8.578125 3.253906 L 10.019531 3.253906 Z M 10.019531 3.574219 "
       id="path2988" />
  </g>
</svg>

<svg xmlns="http://www.w3.org/2000/svg" width="16" height="16" viewBox="0 0 12 12">
 <g>
  <path d="m 11.25 6 c 0 2.484 -2.352 4.5 -5.25 4.5 c -2.898 0 -5.25 -2.02 -5.25 -4.5 c 0 -2.484 2.348 -4.5 5.25 -4.5 c 2.902 0 5.25 2.02 5.25 4.5 m 0 0" style="fill:#ffd85b;fill-opacity:1;stroke:none;fill-rule:nonzero"/>
  <path d="m 4.078 7.875 c -0.441 0 -0.797 -0.355 -0.797 -0.797 c 0 -0.078 0.012 -0.16 0.039 -0.238 c 0.102 0.332 0.41 0.559 0.758 0.559 c 0.348 0 0.656 -0.227 0.758 -0.559 c 0.027 0.078 0.039 0.156 0.039 0.238 c 0 0.441 -0.355 0.797 -0.797 0.797 m 0 0" style="fill:#626262;fill-opacity:1;stroke:none;fill-rule:nonzero"/>
  <path d="m 7.922 7.875 c -0.441 0 -0.797 -0.355 -0.797 -0.797 c 0 -0.078 0.012 -0.16 0.039 -0.238 c 0.102 0.332 0.41 0.559 0.758 0.559 c 0.348 0 0.656 -0.227 0.758 -0.559 c 0.027 0.078 0.039 0.156 0.039 0.238 c 0 0.441 -0.355 0.797 -0.797 0.797 m 0 0" style="fill:#626262;fill-opacity:1;stroke:none;fill-rule:nonzero"/>
  <path d="m 7.91 4.117 c -0.082 0.145 -0.164 0.277 -0.242 0.398 c -0.074 0.117 -0.141 0.23 -0.203 0.344 c -0.066 0.102 -0.129 0.207 -0.188 0.309 c -0.059 0.098 -0.113 0.195 -0.164 0.293 l 0.828 0 l 0 0.324 l -1.266 0 l 0 -0.227 c 0.043 -0.082 0.09 -0.176 0.145 -0.273 c 0.051 -0.102 0.109 -0.207 0.176 -0.32 c 0.063 -0.109 0.133 -0.23 0.203 -0.359 c 0.078 -0.137 0.16 -0.277 0.254 -0.43 l -0.738 0 l 0 -0.32 l 1.195 0 m 0 0.262" style="fill:#353535;fill-opacity:1;stroke:none;fill-rule:nonzero"/>
  <path d="m 10.02 3.574 c -0.113 0.172 -0.211 0.324 -0.301 0.469 c -0.086 0.141 -0.168 0.281 -0.246 0.418 c -0.078 0.133 -0.152 0.258 -0.223 0.379 c -0.066 0.117 -0.133 0.234 -0.195 0.352 l 0.996 0 l 0 0.379 l -1.523 0 l 0 -0.262 c 0.051 -0.109 0.109 -0.223 0.168 -0.34 c 0.063 -0.117 0.137 -0.246 0.215 -0.383 c 0.078 -0.137 0.16 -0.281 0.25 -0.438 c 0.094 -0.156 0.191 -0.328 0.305 -0.516 l -0.887 0 l 0 -0.379 l 1.441 0 m 0 0.32" style="fill:#353535;fill-opacity:1;stroke:none;fill-rule:nonzero"/>
 </g>
</svg>
